src/main/resources/icons/PycharmDSDataloreRemoteIcons/icons/com/jetbrains/plugins/notebooks/datalore/Datalore.svg

<svg height="16" viewBox="0 0 104.00001 120" width="16" xmlns="http://www.w3.org/2000/svg">
  <path
      d="m81.85256 59.524-.03064.04435s-12.64585 14.66201-29.82192 14.66201-29.82192-14.662-29.82192-14.662a163.07209 163.07209 0 0 1 -22.17808-29.26984v58.99467l.516.29533a58.46008 58.46008 0 0 0 26.41919 6.0224c13.33747 0 26.33563-2.17487 36.18571-8.71062 10.00845-6.64081 16.9161-17.44652 18.73166-27.3763z"
      fill="#29b2e7"/>
  <path
      d="m81.85312 59.5232-.00056.00081c-1.8156 9.92973-8.72321 20.73548-18.73165 27.3763-9.85008 6.53575-22.84824 8.71062-36.18571 8.71062a58.46008 58.46008 0 0 1 -26.4192-6.0224l51.484 29.46655 52-29.76188v-.52842a163.54553 163.54553 0 0 0 -22.14688-29.24158z"
      fill="#6284c3"/>
  <path
      d="m81.85312 59.5232-.00642.00914a65.28462 65.28462 0 0 1 -2.24386 28.42379c-4.04885 13.34813-11.9924 20.93654-24.0129 29.04428l48.41006-27.70722v-.52841a163.54531 163.54531 0 0 0 -22.14688-29.24158z"
      fill="#6f57a5"/>
  <path
      d="m22.14746 59.53108.03064-.04435s12.6459-14.66195 29.8219-14.66195 29.82192 14.662 29.82192 14.662a163.07229 163.07229 0 0 1 22.17808 29.26986v-58.99476l-.516-.29533a58.46 58.46 0 0 0 -26.41919-6.0224c-13.33747 0-26.33562 2.17487-36.18571 8.71062-10.00844 6.64082-16.91605 17.44657-18.73164 27.37631z"
      fill="#00a775"/>
  <path
      d="m22.14689 59.53189.00057-.00081c1.81559-9.92974 8.7232-20.73549 18.73164-27.3763 9.85009-6.53575 22.84823-8.71063 36.18571-8.71062a58.46 58.46 0 0 1 26.41919 6.0224l-51.484-29.46656-52 29.76189v.5284a163.546 163.546 0 0 0 22.14689 29.2416z"
      fill="#6ebe48"/>
  <path
      d="m22.14689 59.53189.00642-.00914a65.28471 65.28471 0 0 1 2.24386-28.42381c4.04883-13.34816 11.99242-20.93655 24.01292-29.04427l-48.41009 27.70721v.5284a163.54635 163.54635 0 0 0 22.14689 29.24161z"
      fill="#add361"/>
</svg>

<svg height="16" viewBox="0 0 104 120" width="16" xmlns="http://www.w3.org/2000/svg"><rect id="frame" width="16" height="16" fill="none"/><path d="M81.853 59.524l-.031.044S69.176 74.23 52 74.23 22.178 59.568 22.178 59.568A163.072 163.072 0 0 1 0 30.298v58.995l.516.296a58.46 58.46 0 0 0 26.42 6.022c13.337 0 26.335-2.175 36.185-8.71 10.008-6.642 16.916-17.447 18.732-27.377z" fill="#29b2e7"/><path d="M81.853 59.523v.001c-1.816 9.93-8.724 20.735-18.732 27.376-9.85 6.536-22.848 8.71-36.186 8.71A58.46 58.46 0 0 1 .516 89.59L52 119.055l52-29.762v-.528a163.546 163.546 0 0 0-22.147-29.242z" fill="#6284c3"/><path d="M81.853 59.523l-.006.01a65.285 65.285 0 0 1-2.244 28.423C75.554 101.304 67.61 108.893 55.59 117L104 89.293v-.528a163.545 163.545 0 0 0-22.147-29.242z" fill="#6f57a5"/><path d="M22.147 59.531l.031-.044S34.824 44.825 52 44.825s29.822 14.662 29.822 14.662A163.072 163.072 0 0 1 104 88.757V29.762l-.516-.295a58.46 58.46 0 0 0-26.42-6.023c-13.337 0-26.335 2.175-36.185 8.71-10.008 6.642-16.916 17.447-18.732 27.377z" fill="#00a775"/><path d="M22.147 59.532c1.816-9.93 8.724-20.736 18.732-27.377 9.85-6.536 22.848-8.71 36.186-8.71a58.46 58.46 0 0 1 26.419 6.022L52 0 0 29.762v.528a163.546 163.546 0 0 0 22.147 29.242z" fill="#6ebe48"/><path d="M22.147 59.532l.006-.01A65.285 65.285 0 0 1 24.397 31.1C28.446 17.75 36.39 10.162 48.41 2.055L0 29.762v.528a163.546 163.546 0 0 0 22.147 29.242z" fill="#add361"/></svg>
